X: 1
T: reel du P\`ere Carignan
S: Denis C\^ot\'e
S: printed MS from Debbie Knight
R: reel
Z: 2012 John Chambers <jc:trillian.mit.edu>
M: 2/4
L: 1/16
K: D
f2- |\
"D"fafd "G"g3g | "D"fafd A2FA | "(G)"dcBA "G"GB2B | "A7"ABAG "D"F2AA | "D"fafd "G"g3g |
"D"fafd A2dd | "A7"cdef gecA | "D"df"A7"ec "D"d2 :: AG | "D"ABAF DFAd | "G"BdBG ABcd |
"A7"efec Aceg | "D"fafd "A7"A2AG | "D"ABAF DFAd | "G"BdBG ABcd | "A7"efec Acef | "A7"gecA "D"d2 :|
